img/section2/icons/veranda.svg

<svg xmlns="http://www.w3.org/2000/svg" width="800" height="800" fill="none" viewBox="0 0 45 45"><path stroke="#1F628E" stroke-linejoin="round" stroke-width="2" d="M22.653 8c5.585 0 10.406 3.27 12.653 8H10c2.247-4.73 7.068-8 12.653-8Z"/><path stroke="#1F628E" stroke-width="2" d="M22.653 16v21M34.653 37V21M34.653 30h-7a1 1 0 0 0-1 1v6M10.653 37V21M10.653 30h7a1 1 0 0 1 1 1v6M13.653 26h18"/></svg>

<?xml version="1.0" encoding="utf-8"?><!-- Uploaded to: SVG Repo, www.svgrepo.com, Generator: SVG Repo Mixer Tools -->
<svg width="800px" height="800px" viewBox="0 0 45 45" fill="none" xmlns="http://www.w3.org/2000/svg">
<path d="M22.653 8C28.238 8 33.059 11.27 35.306 16H10C12.247 11.27 17.068 8 22.653 8Z" stroke="#1F628E" stroke-width="2" stroke-linejoin="round"/>
<path d="M22.653 16V37" stroke="#1F628E" stroke-width="2"/>
<path d="M34.653 37V21" stroke="#1F628E" stroke-width="2"/>
<path d="M34.653 30H27.653C27.101 30 26.653 30.448 26.653 31V37" stroke="#1F628E" stroke-width="2"/>
<path d="M10.653 37V21" stroke="#1F628E" stroke-width="2"/>
<path d="M10.653 30H17.653C18.205 30 18.653 30.448 18.653 31V37" stroke="#1F628E" stroke-width="2"/>
<path d="M13.653 26H31.653" stroke="#1F628E" stroke-width="2"/>
</svg>
